static/img/xr/List_Text_action_d_Anatomy.svg

<svg fill="none" height="40" viewBox="0 0 240 40" width="240" xmlns="http://www.w3.org/2000/svg"><path d="m8 0h224v4h-224z" fill="#ff95f8" fill-opacity=".5"/><path d="m8 36h224v4h-224z" fill="#ff95f8" fill-opacity=".5"/><path d="m0 4h8v32h-8z" fill="#ff95f8" fill-opacity=".5"/><path d="m232 4h8v32h-8z" fill="#ff95f8" fill-opacity=".5"/><path d="m8 6c0-1.10457.89543-2 2-2h220c1.105 0 2 .89543 2 2v28c0 1.1046-.895 2-2 2h-220c-1.10456 0-2-.8954-2-2z" fill="#cbcdd6"/><path d="m29.6067 21.4267c-.0667-.58-.2-1.1534-.4133-1.6934-.4656.1835-.9732.2333-1.4656.1437-.4923-.0895-.9499-.3147-1.3211-.6503-.5533.5733-1.0467 1.2066-1.48 1.8733 1.2733 1.04 3.3667 1.3133 4.68.3267zm-3.1867-3.0734c.3934-.3666.82-.7066 1.2667-1.0066-.4055-.3729-.8815-.6607-1.4-.8467-.3733.58-.32 1.34.1333 1.86m1.7267-1.3467c.3067-.2266.6333-.4066.9867-.5466-.3082-.3-.7008-.4985-1.1251-.5688-.4242-.0703-.8598-.0091-1.2483.1754.5134.2267.9867.5467 1.3934.94m-4.1734-.6466c-.8933 1.2666-.4733 3.1133.56 4.2733.4433-.6758.9477-1.3096 1.5067-1.8933-.5733-.6667-.6867-1.6134-.2667-2.3934-.5933-.1466-1.2133-.14-1.8.0134zm1.8-.0134 3.66 2.4734c.44-.56.4467-1.3467.02-1.9134-.3333.1334-.64.32-.92.54.3534.42.66.88.9 1.3734m-3.2866-3.0467c.3933-.28.86-.4333 1.34-.4467-.9867-.1666-2-.0533-2.9267.3334.5333-.06 1.0733-.02 1.5867.1133zm2.8466 3.3933c-.24-.5066-.5466-.9733-.9066-1.3933-.4534.3-.88.64-1.28 1.0067.6.5266 1.4466.68 2.1866.3866zm1.3-1.4066c.0867.6133-.1533 1.2266-.6266 1.6333.1933.4933.34 1 .4266 1.52.3104-.4605.4925-.9953.5276-1.5495.0352-.5543-.0779-1.1078-.3276-1.6038zm-.1133 3.94c.0133.38 0 .7666-.0533 1.1466.7014-.8995 1.0393-2.0297.9466-3.1666-.0666.7533-.38 1.46-.8933 2.02zm3.8333-1.6934-2.6466-1.5333c.3133 1 .3066 2.0667-.0134 3.0667zm-9.36 1.66c-.3866.6334-.6733 1.3267-.84 2.0534.8087.6094 1.7981.9306 2.8106.9125 1.0124-.0182 1.9897-.3746 2.7761-1.0125.18-.4667.2667-.9667.2533-1.4667-.7918.409-1.6848.5806-2.5718.4943-.8869-.0864-1.7301-.427-2.4282-.981zm-.4133-.48c-.5242-.5337-.9048-1.1913-1.1065-1.9117-.2016-.7203-.2178-1.48-.0468-2.2083-.7368.8691-1.1185 1.984-1.0691 3.1223.0494 1.1382.5264 2.2158 1.3357 3.0177.2067-.7133.5067-1.3933.8934-2.02m1.2066-6.3266-2.6333-1.5134v3.0334c.7014-.7632 1.6209-1.2916 2.6333-1.5134zm-2.6333 11.8066 2.6533-1.5333c-1.0199-.2212-1.9466-.7521-2.6533-1.52z" fill="#252a2e"/><path d="m213.607 21.4267c-.067-.58-.2-1.1534-.414-1.6934-.465.1835-.973.2333-1.465.1437-.493-.0895-.95-.3147-1.321-.6503-.554.5733-1.047 1.2066-1.48 1.8733 1.273 1.04 3.366 1.3133 4.68.3267zm-3.187-3.0734c.393-.3666.82-.7066 1.267-1.0066-.406-.3729-.882-.6607-1.4-.8467-.374.58-.32 1.34.133 1.86m1.727-1.3467c.306-.2266.633-.4066.986-.5466-.308-.3-.7-.4985-1.125-.5688-.424-.0703-.86-.0091-1.248.1754.513.2267.987.5467 1.393.94m-4.173-.6466c-.893 1.2666-.473 3.1133.56 4.2733.443-.6758.948-1.3096 1.507-1.8933-.574-.6667-.687-1.6134-.267-2.3934-.593-.1466-1.213-.14-1.8.0134zm1.8-.0134 3.66 2.4734c.44-.56.447-1.3467.02-1.9134-.333.1334-.64.32-.92.54.353.42.66.88.9 1.3734m-3.287-3.0467c.394-.28.86-.4333 1.34-.4467-.986-.1666-2-.0533-2.926.3334.533-.06 1.073-.02 1.586.1133zm2.847 3.3933c-.24-.5066-.547-.9733-.907-1.3933-.453.3-.88.64-1.28 1.0067.6.5266 1.447.68 2.187.3866zm1.3-1.4066c.087.6133-.153 1.2266-.627 1.6333.194.4933.34 1 .427 1.52.31-.4605.492-.9953.528-1.5495.035-.5543-.078-1.1078-.328-1.6038zm-.113 3.94c.013.38 0 .7666-.054 1.1466.702-.8995 1.04-2.0297.947-3.1666-.067.7533-.38 1.46-.893 2.02zm3.833-1.6934-2.647-1.5333c.314 1 .307 2.0667-.013 3.0667zm-9.36 1.66c-.387.6334-.673 1.3267-.84 2.0534.809.6094 1.798.9306 2.811.9125 1.012-.0182 1.989-.3746 2.776-1.0125.18-.4667.266-.9667.253-1.4667-.792.409-1.685.5806-2.572.4943-.887-.0864-1.73-.427-2.428-.981zm-.413-.48c-.524-.5337-.905-1.1913-1.107-1.9117-.201-.7203-.218-1.48-.047-2.2083-.736.8691-1.118 1.984-1.069 3.1223.05 1.1382.527 2.2158 1.336 3.0177.207-.7133.507-1.3933.893-2.02m1.207-6.3266-2.633-1.5134v3.0334c.701-.7632 1.621-1.2916 2.633-1.5134zm-2.633 11.8066 2.653-1.5333c-1.02-.2212-1.947-.7521-2.653-1.52z" fill="#252a2e"/><path d="m12 33h216v1h-216z" fill="#90939f"/><path d="m53.2539 23h-.9336v-2.5781h-2.6328v2.5781h-.9375v-5.7109h.9375v2.3359h2.6328v-2.3359h.9336zm3.0625-3.5703c.3672 0 .6901.0664.9688.1992.2812.1302.5.3229.6562.5781.1563.2526.2344.5625.2344.9297 0 .4011-.0847.7474-.2539 1.0391-.1693.289-.418.5117-.7461.668-.3281.1562-.7279.2343-1.1992.2343-.2995 0-.5795-.026-.8399-.0781-.2578-.0521-.4805-.1302-.6679-.2344v-.8281c.1953.1094.4296.1992.7031.2695.2734.0677.5351.1016.7851.1016.2657 0 .4935-.0391.6836-.1172s.336-.1979.4375-.3594c.1042-.1614.1563-.3659.1563-.6132 0-.3282-.1055-.5808-.3164-.7579-.2084-.1797-.5352-.2695-.9805-.2695-.1563 0-.3229.0143-.5.043-.1745.026-.3203.0547-.4375.0859l-.4023-.2383.2148-2.7929h2.9687v.8086h-2.1601l-.125 1.4218c.0937-.0208.2057-.0403.3359-.0586.1302-.0208.2917-.0312.4844-.0312z" fill="#252a2e"/><g fill-opacity=".5"><path d="m8.25 4.25h39.5v31.5h-39.5z" fill="#89c6ed" stroke="#fff" stroke-width=".5"/><path d="m192.25 4.25h39.5v31.5h-39.5z" fill="#89c6ed" stroke="#fff" stroke-width=".5"/><path d="m16.25 8.25h23.5v23.5h-23.5z" fill="#89c6ed" stroke="#fff" stroke-width=".5"/><path d="m200.25 8.25h23.5v23.5h-23.5z" fill="#89c6ed" stroke="#fff" stroke-width=".5"/><path d="m48.25 4.25h143.5v31.5h-143.5z" fill="#89c6ed" stroke="#fff" stroke-width=".5"/></g></svg>

<svg width="240" height="40" viewBox="0 0 240 40" fill="none" xmlns="http://www.w3.org/2000/svg">
<rect x="8" width="224" height="4" fill="#FF95F8" fill-opacity="0.5"/>
<rect x="8" y="36" width="224" height="4" fill="#FF95F8" fill-opacity="0.5"/>
<rect y="4" width="8" height="32" fill="#FF95F8" fill-opacity="0.5"/>
<rect x="232" y="4" width="8" height="32" fill="#FF95F8" fill-opacity="0.5"/>
<path d="M8 6C8 4.89543 8.89543 4 10 4H230C231.105 4 232 4.89543 232 6V34C232 35.1046 231.105 36 230 36H10C8.89544 36 8 35.1046 8 34V6Z" fill="#CBCDD6"/>
<path d="M29.6067 21.4267C29.54 20.8467 29.4067 20.2733 29.1934 19.7333C28.7278 19.9168 28.2202 19.9666 27.7278 19.877C27.2355 19.7875 26.7779 19.5623 26.4067 19.2267C25.8534 19.8 25.36 20.4333 24.9267 21.1C26.2 22.14 28.2934 22.4133 29.6067 21.4267ZM26.42 18.3533C26.8134 17.9867 27.24 17.6467 27.6867 17.3467C27.2812 16.9738 26.8052 16.686 26.2867 16.5C25.9134 17.08 25.9667 17.84 26.42 18.36M28.1467 17.0133C28.4534 16.7867 28.78 16.6067 29.1334 16.4667C28.8252 16.1667 28.4326 15.9682 28.0083 15.8979C27.5841 15.8276 27.1485 15.8888 26.76 16.0733C27.2734 16.3 27.7467 16.62 28.1534 17.0133M23.98 16.3667C23.0867 17.6333 23.5067 19.48 24.54 20.64C24.9833 19.9642 25.4877 19.3304 26.0467 18.7467C25.4734 18.08 25.36 17.1333 25.78 16.3533C25.1867 16.2067 24.5667 16.2133 23.98 16.3667ZM25.78 16.3533L29.44 18.8267C29.88 18.2667 29.8867 17.48 29.46 16.9133C29.1267 17.0467 28.82 17.2333 28.54 17.4533C28.8934 17.8733 29.2 18.3333 29.44 18.8267M26.1534 15.78C26.5467 15.5 27.0134 15.3467 27.4934 15.3333C26.5067 15.1667 25.4934 15.28 24.5667 15.6667C25.1 15.6067 25.64 15.6467 26.1534 15.78ZM29 19.1733C28.76 18.6667 28.4534 18.2 28.0934 17.78C27.64 18.08 27.2134 18.42 26.8134 18.7867C27.4134 19.3133 28.26 19.4667 29 19.1733ZM30.3 17.7667C30.3867 18.38 30.1467 18.9933 29.6734 19.4C29.8667 19.8933 30.0134 20.4 30.1 20.92C30.4104 20.4595 30.5925 19.9247 30.6276 19.3705C30.6628 18.8162 30.5497 18.2627 30.3 17.7667ZM30.1867 21.7067C30.2 22.0867 30.1867 22.4733 30.1334 22.8533C30.8348 21.9538 31.1727 20.8236 31.08 19.6867C31.0134 20.44 30.7 21.1467 30.1867 21.7067ZM34.02 20.0133L31.3734 18.48C31.6867 19.48 31.68 20.5467 31.36 21.5467L34.02 20.0133ZM24.66 21.6733C24.2734 22.3067 23.9867 23 23.82 23.7267C24.6287 24.3361 25.6181 24.6573 26.6306 24.6392C27.643 24.621 28.6203 24.2646 29.4067 23.6267C29.5867 23.16 29.6734 22.66 29.66 22.16C28.8682 22.569 27.9752 22.7406 27.0882 22.6543C26.2013 22.5679 25.3581 22.2273 24.66 21.6733ZM24.2467 21.1933C23.7225 20.6596 23.3419 20.002 23.1402 19.2816C22.9386 18.5613 22.9224 17.8016 23.0934 17.0733C22.3566 17.9424 21.9749 19.0573 22.0243 20.1956C22.0737 21.3338 22.5507 22.4114 23.36 23.2133C23.5667 22.5 23.8667 21.82 24.2534 21.1933M25.46 14.8667L22.8267 13.3533V16.3867C23.5281 15.6235 24.4476 15.0951 25.46 14.8733V14.8667ZM22.8267 26.6733L25.48 25.14C24.4601 24.9188 23.5334 24.3879 22.8267 23.62V26.6733Z" fill="#252A2E"/>
<path d="M213.607 21.4267C213.54 20.8467 213.407 20.2733 213.193 19.7333C212.728 19.9168 212.22 19.9666 211.728 19.877C211.235 19.7875 210.778 19.5623 210.407 19.2267C209.853 19.8 209.36 20.4333 208.927 21.1C210.2 22.14 212.293 22.4133 213.607 21.4267ZM210.42 18.3533C210.813 17.9867 211.24 17.6467 211.687 17.3467C211.281 16.9738 210.805 16.686 210.287 16.5C209.913 17.08 209.967 17.84 210.42 18.36M212.147 17.0133C212.453 16.7867 212.78 16.6067 213.133 16.4667C212.825 16.1667 212.433 15.9682 212.008 15.8979C211.584 15.8276 211.148 15.8888 210.76 16.0733C211.273 16.3 211.747 16.62 212.153 17.0133M207.98 16.3667C207.087 17.6333 207.507 19.48 208.54 20.64C208.983 19.9642 209.488 19.3304 210.047 18.7467C209.473 18.08 209.36 17.1333 209.78 16.3533C209.187 16.2067 208.567 16.2133 207.98 16.3667ZM209.78 16.3533L213.44 18.8267C213.88 18.2667 213.887 17.48 213.46 16.9133C213.127 17.0467 212.82 17.2333 212.54 17.4533C212.893 17.8733 213.2 18.3333 213.44 18.8267M210.153 15.78C210.547 15.5 211.013 15.3467 211.493 15.3333C210.507 15.1667 209.493 15.28 208.567 15.6667C209.1 15.6067 209.64 15.6467 210.153 15.78ZM213 19.1733C212.76 18.6667 212.453 18.2 212.093 17.78C211.64 18.08 211.213 18.42 210.813 18.7867C211.413 19.3133 212.26 19.4667 213 19.1733ZM214.3 17.7667C214.387 18.38 214.147 18.9933 213.673 19.4C213.867 19.8933 214.013 20.4 214.1 20.92C214.41 20.4595 214.592 19.9247 214.628 19.3705C214.663 18.8162 214.55 18.2627 214.3 17.7667ZM214.187 21.7067C214.2 22.0867 214.187 22.4733 214.133 22.8533C214.835 21.9538 215.173 20.8236 215.08 19.6867C215.013 20.44 214.7 21.1467 214.187 21.7067ZM218.02 20.0133L215.373 18.48C215.687 19.48 215.68 20.5467 215.36 21.5467L218.02 20.0133ZM208.66 21.6733C208.273 22.3067 207.987 23 207.82 23.7267C208.629 24.3361 209.618 24.6573 210.631 24.6392C211.643 24.621 212.62 24.2646 213.407 23.6267C213.587 23.16 213.673 22.66 213.66 22.16C212.868 22.569 211.975 22.7406 211.088 22.6543C210.201 22.5679 209.358 22.2273 208.66 21.6733ZM208.247 21.1933C207.723 20.6596 207.342 20.002 207.14 19.2816C206.939 18.5613 206.922 17.8016 207.093 17.0733C206.357 17.9424 205.975 19.0573 206.024 20.1956C206.074 21.3338 206.551 22.4114 207.36 23.2133C207.567 22.5 207.867 21.82 208.253 21.1933M209.46 14.8667L206.827 13.3533V16.3867C207.528 15.6235 208.448 15.0951 209.46 14.8733V14.8667ZM206.827 26.6733L209.48 25.14C208.46 24.9188 207.533 24.3879 206.827 23.62V26.6733Z" fill="#252A2E"/>
<rect x="12" y="33" width="216" height="1" fill="#90939F"/>
<path d="M53.2539 23H52.3203V20.4219H49.6875V23H48.75V17.2891H49.6875V19.625H52.3203V17.2891H53.2539V23ZM56.3164 19.4297C56.6836 19.4297 57.0065 19.4961 57.2852 19.6289C57.5664 19.7591 57.7852 19.9518 57.9414 20.207C58.0977 20.4596 58.1758 20.7695 58.1758 21.1367C58.1758 21.5378 58.0911 21.8841 57.9219 22.1758C57.7526 22.4648 57.5039 22.6875 57.1758 22.8438C56.8477 23 56.4479 23.0781 55.9766 23.0781C55.6771 23.0781 55.3971 23.0521 55.1367 23C54.8789 22.9479 54.6562 22.8698 54.4688 22.7656V21.9375C54.6641 22.0469 54.8984 22.1367 55.1719 22.207C55.4453 22.2747 55.707 22.3086 55.957 22.3086C56.2227 22.3086 56.4505 22.2695 56.6406 22.1914C56.8307 22.1133 56.9766 21.9935 57.0781 21.832C57.1823 21.6706 57.2344 21.4661 57.2344 21.2188C57.2344 20.8906 57.1289 20.638 56.918 20.4609C56.7096 20.2812 56.3828 20.1914 55.9375 20.1914C55.7812 20.1914 55.6146 20.2057 55.4375 20.2344C55.263 20.2604 55.1172 20.2891 55 20.3203L54.5977 20.082L54.8125 17.2891H57.7812V18.0977H55.6211L55.4961 19.5195C55.5898 19.4987 55.7018 19.4792 55.832 19.4609C55.9622 19.4401 56.1237 19.4297 56.3164 19.4297Z" fill="#252A2E"/>
<rect x="8.25" y="4.25" width="39.5" height="31.5" fill="#89C6ED" fill-opacity="0.5" stroke="white" stroke-width="0.5"/>
<rect x="192.25" y="4.25" width="39.5" height="31.5" fill="#89C6ED" fill-opacity="0.5" stroke="white" stroke-width="0.5"/>
<rect x="16.25" y="8.25" width="23.5" height="23.5" fill="#89C6ED" fill-opacity="0.5" stroke="white" stroke-width="0.5"/>
<rect x="200.25" y="8.25" width="23.5" height="23.5" fill="#89C6ED" fill-opacity="0.5" stroke="white" stroke-width="0.5"/>
<rect x="48.25" y="4.25" width="143.5" height="31.5" fill="#89C6ED" fill-opacity="0.5" stroke="white" stroke-width="0.5"/>
</svg>
